X:1
T:Cop Show Guitar
M:4/4
L:1/16
Q:1/4=105
K:Em
%%MIDI program 27
|: [E,B,E]2 z2 [E,B,E]z z[E,B,E] z2[E,B,E]2 z[E,B,E] z2 |
[E,B,E]2 z2 [E,B,E]z z[E,B,E] z2[E,B,E]2 z[E,B,E] z2 |
[A,E,A]2 z2 [A,E,A]z z[A,E,A] z2[A,E,A]2 z[A,E,A] z2 |
[E,B,E]2 z2 [E,B,E]z z[E,B,E] z2[B,,F,B,]4 z4 |
[E,B,E]2 z2 [E,B,E]z z[E,B,E] z2[E,B,E]2 z[E,B,E] z2 |
[E,B,E]2 z2 [E,B,E]z z[E,B,E] z2[E,B,E]2 z[E,B,E] z2 |
[A,E,A]2 z2 [A,E,A]z z[A,E,A] z2[A,E,A]2 z[A,E,A] z2 |
[B,,F,B,]4 z4 [E,B,E]4 z4 :|
